X:1
T:Sei nur still
T:Sei nur still
T:J.W. Franck (1644-1710)
T:In MuseScore gezet door Willem van der Til
T:In MuseScore gezet door Willem van der Til
C:J.W. Franck (1644-1710)
Z:In MuseScore gezet door Willem van der Til
%%score 1 { ( 2 3 4 6 ) | 5 }
L:1/8
Q:1/2=20
M:2/2
K:F
V:1 treble nm="Stem"
V:2 treble nm="Piano"
V:3 treble 
V:4 treble 
V:6 treble 
V:5 bass 
V:1
"^Heel rustig, met uitdrukking"!mp! z2 B (A/G/) G2 z2 | z2 B (A/G/) A d (G/A/) (B/c/) | %2
w: 1. Sei   nur *    still!|Sei   nur * still und harr' * auf *|
w: 2. Sei nur * still!|Sei nur * still, ge- denk- * ke *|
w: 3. Sei nur * still!|Sei nur * still,  wenn's  noch * so *|
w: 4. Sei nur * still!|Sei nur * still, die Son- * ne *|
w: 5. Sei nur * still!|Sei nur * still, wenn g'nug * die *|
w: 6. Sei nur * still!|Sei nur * still, und muszt * du *|
 !breath!d2 A A B B (B/A/) (B/c/) | A !breath!F A A G A F3/2 G/ | %4
w: Gott, Er weisz al- les wohl * zu *|mach- en, Er ver- trei- bet Leid und|
w: nicht, dein be- trüb- nis sei * zu *|hef- tig, Weil dir al- ler Trost ge-|
w: lang' Itzt für dei- nen Au- * gen *|wäh- ret; Mach- et dich dein Lei- den|
w: kann, Eh' du's mei- nest, auf * dich *|schei- nen, Was ver- hin- dert dich dar-|
w: See hat ge- ra- zet mit * den *|wel- len und ver- ur- sacht  Angst und|
w: noch ei- ne Zeit- lang trau- * rig *|ge- hen un- ter dei- nes Lei- dens|
 !breath!E2 A c (B/A/) (G/A/) F (E/D/) | D !breath!D A A B B c3/2 d/ | d2 f c !breath!d2 d A | %7
w: Spott, Läs- set kom- * men * Ehr' und *|Lach- en, Es musz ge- hen wie Er|will: Sei nur still. Es musz|
w: bricht, Trau- e Gott, * er * bleibt ge- *|schäf- tig, Dasz er dei- nen Wünsch er-|füll; Sei   nur still. Dasz er|
w: bang, End- lich wird * dir * Trost be- *|sche- ret, Da dich Wonn' und Lust om-|hüll' Sei nur still. Da dich|
w: an? Schla- ge von * dir * Klag' und *|Wei- nen, Denk', es geht doch wie Gott|will, Sei nur still, Denk', es|
w: Weh, So musz  sich * ihr * Wü- ten *|stel- len, Dasz sie wie ein Bäch- lein|quill', Sei nur still, Dasz sie|
w: Joch, Letst- lich läszt * Gott * hil- fe *|se- hen, Denn er ist der Höchst' im|Spill; Sei nur still, Denn er|
 B B A3/2 G/ ^F2 B (A/G/) | !breath!G2!p! B (A/G/) G4 |] %9
w: ge- hen wie Er will: Sei nur *|still, Sei nur * still.|
w: dei- nen  Wünsch er- füll; Sei nur *|still, Sei nur * still.|
w: Wonn'  und Lust um- hüll', Sei   nur *|still, Sei nur * still.|
w: geht doch wie Gott will; Sei nur *|still, Sei nur * still.|
w: wie ein Bäch- lein  quill', Sei nur *|still, Sei nur * still.|
w: ist der Höchst' im Spill; Sei nur *|still, Sei nur * still.|
V:2
 z2!mp! D/E/^F G2 B,A,/G,/ | G,2 DE FD D/C/B,/4A,/4G,/ | A,2 DD GG/F/ ED/C/ | %3
[K:bass] CD/E/ F/E/F EDFD |[K:treble] D^C/E/ D/A/A G/F/E/F/ FE/D/ | D2 D/E/F G/^F/G/B/G=F | %6
[K:bass] D2 FF/_E/ D>E DD/C/ | B,C/D/ C_E A,>DDA,/G,/ | G,2!p! B,/C/D D4 |] %9
V:3
 x2 B,D D2 G,^F, | D,2 B,2 D2 G,2 | G,E,A,D DD/C/B,B,/B,/ |[K:bass] A,A,A,A, B,B,B,B, | %4
[K:treble] E,A, A,D DD D^C | A,2 A,D DDCC |[K:bass] CA,/B,/ CC CB, A,A, | G,A,/B,/ A,G, ^F,F,G,F, | %8
 D,2 G,E,/^F,/ B,4 |] %9
V:4
 x3 C B,2 D,D, | B,,2 x2 A,2 x2 | x2 ^F, x B,B,/A,/ G,F,/E,/ |[K:bass] F,F,E,D, E,/G,/A,G,G,/F,/ | %4
[K:treble] A, x2 =C B,B, A,/^G,/=G, | G,E, F,A,/C/ B,B,B,A,/G,/ |[K:bass] F,2 F,F, F,2 D,D, | %7
 D,2 _E,E, D,D,D,D, | B,,2 z C G,4 |] %9
V:5
 z2 G,,D, G,G,,B,,D, | G,,2 G,2 F,2 _E,2 | D,3 D, G,,2 C,2 | F,,3 F,, G,,3 G,, | %4
 A,,2 F,,2 G,,2 A,,2 | D,3 D, G,,F,,_E,,F,, | B,,2 A,,2 B,,2 ^F,,2 | G,,2 C,2 D,C,A,,D, | %8
 G,,2 G,D, G,,4 |] %9
V:6
 x8 | x8 | x8 |[K:bass] x8 |[K:treble] x8 | x8 |[K:bass] x8 | x8 | x4 D,4 |] %9

